app/dist/common/images/immuneering.svg

<svg height="18" viewBox="0 0 18 18" width="18" xmlns="http://www.w3.org/2000/svg"><path d="m0 0h18v18h-18z" fill="#2997d4"/><g fill="#fbfeff"><circle cx="9" cy="4" r="1"/><path d="m6 6h2v1h-2zm6 0h-2v1h2zm-6 7h2v1h-2zm6 0h-2v1h2z"/><path d="m8 6v8h-1v-8zm2 0v8h1v-8z"/></g></svg>

<!-- by TradingView --><svg width="18" height="18" viewBox="0 0 18 18" xmlns="http://www.w3.org/2000/svg"><path fill="#2997D4" d="M0 0h18v18H0z"/><circle cx="9" cy="4" r="1" fill="#FBFEFF"/><path fill="#FBFEFF" d="M6 6h2v1H6zM12 6h-2v1h2zM6 13h2v1H6zM12 13h-2v1h2z"/><path fill="#FBFEFF" d="M8 6v8H7V6zM10 6v8h1V6z"/></svg>
